raw-svg/gauge.svg

<svg fill="none" height="24" viewBox="0 0 24 24" width="24" xmlns="http://www.w3.org/2000/svg"><path clip-rule="evenodd" d="m7.14947 8.07313 1.38384 1.39954c.29124.29454.28856.76943-.00598 1.06063s-.7694.2886-1.06064-.006l-1.45471-1.47118c-1.0328 1.11688-1.60028 2.47048-1.90944 3.63128-.16225.6092-.25011 1.1535-.29753 1.5626h1.69499c.41421 0 .75.3358.75.75s-.33579.75-.75.75h-1.75v1.25c0 .1381.11193.25.25.25h3.68934l5.28036-5.2803c.2929-.2929.7677-.2929 1.0606 0s.2929.7677 0 1.0606l-4.21964 4.2197h10.18934c.1381 0 .25-.1119.25-.25v-1.25h-1.75c-.4142 0-.75-.3358-.75-.75s.3358-.75.75-.75h1.695c-.0184-.1584-.0428-.3374-.0754-.533-.1325-.7946-.3959-1.8426-.9154-2.8816-.3073-.6146-.7016-1.22113-1.2082-1.77071l-1.4657 1.46561c-.2929.2929-.7677.2929-1.0606 0s-.2929-.76774 0-1.06063l1.3902-1.39018c-.0241-.01652-.0484-.03292-.0728-.0492-.9914-.66091-2.2988-1.1482-4.0371-1.25728v1.72699c0 .41421-.3358.75-.75.75s-.75-.33579-.75-.75v-1.727c-1.76932.11099-3.09646.61401-4.10053 1.30013zm13.85053 6.92687c.75 0 .75-.0004.75-.0008v-.0038l-.0001-.0079-.0003-.0254c-.0003-.0212-.001-.0508-.0022-.0882-.0025-.0747-.0074-.1809-.0169-.3141-.019-.266-.0566-.6411-.1313-1.0893-.1488-.8929-.4479-2.0949-1.0534-3.3059-.607-1.21398-1.5292-2.45077-2.9266-3.38239-1.4022-.93475-3.238-1.53221-5.6192-1.53221-2.9102 0-4.99793.89277-6.4722 2.18622-1.66343 1.4594-2.47538 3.36568-2.87473 4.86518-.20089.7542-.30133 1.42-.35173 1.8993-.02525.2401-.03807.4347-.04459.5716-.00326.0686-.00495.1228-.00582.1612-.00044.0192-.00067.0345-.00079.0456l-.00012.0136-.00002.0045v.0016c0 .0003 0 .0012.75.0012h-.75v2c0 .9665.7835 1.75 1.75 1.75h16c.9665 0 1.75-.7835 1.75-1.75v-2.0008z" fill="#000" fill-rule="evenodd"/></svg>

<svg width="24" height="24" viewBox="0 0 24 24" fill="none" xmlns="http://www.w3.org/2000/svg">
<path fill-rule="evenodd" clip-rule="evenodd" d="M7.14947 8.07313L8.53331 9.47267C8.82455 9.76721 8.82187 10.2421 8.52733 10.5333C8.23279 10.8245 7.75793 10.8219 7.46669 10.5273L6.01198 9.05612C4.97918 10.173 4.4117 11.5266 4.10254 12.6874C3.94029 13.2966 3.85243 13.8409 3.80501 14.25H5.5C5.91421 14.25 6.25 14.5858 6.25 15C6.25 15.4142 5.91421 15.75 5.5 15.75H3.75V17C3.75 17.1381 3.86193 17.25 4 17.25H7.68934L12.9697 11.9697C13.2626 11.6768 13.7374 11.6768 14.0303 11.9697C14.3232 12.2626 14.3232 12.7374 14.0303 13.0303L9.81066 17.25H20C20.1381 17.25 20.25 17.1381 20.25 17V15.75H18.5C18.0858 15.75 17.75 15.4142 17.75 15C17.75 14.5858 18.0858 14.25 18.5 14.25H20.195C20.1766 14.0916 20.1522 13.9126 20.1196 13.717C19.9871 12.9224 19.7237 11.8744 19.2042 10.8354C18.8969 10.2208 18.5026 9.61427 17.996 9.06469L16.5303 10.5303C16.2374 10.8232 15.7626 10.8232 15.4697 10.5303C15.1768 10.2374 15.1768 9.76256 15.4697 9.46967L16.8599 8.07949C16.8358 8.06297 16.8115 8.04657 16.7871 8.03029C15.7957 7.36938 14.4883 6.88209 12.75 6.77301V8.5C12.75 8.91421 12.4142 9.25 12 9.25C11.5858 9.25 11.25 8.91421 11.25 8.5V6.773C9.48068 6.88399 8.15354 7.38701 7.14947 8.07313ZM21 15C21.75 15 21.75 14.9996 21.75 14.9992L21.75 14.9954L21.7499 14.9875L21.7496 14.9621C21.7493 14.9409 21.7486 14.9113 21.7474 14.8739C21.7449 14.7992 21.74 14.693 21.7305 14.5598C21.7115 14.2938 21.6739 13.9187 21.5992 13.4705C21.4504 12.5776 21.1513 11.3756 20.5458 10.1646C19.9388 8.95062 19.0166 7.71383 17.6192 6.78221C16.217 5.84746 14.3812 5.25 12 5.25C9.0898 5.25 7.00207 6.14277 5.5278 7.43622C3.86437 8.89562 3.05242 10.8019 2.65307 12.3014C2.45218 13.0556 2.35174 13.7214 2.30134 14.2007C2.27609 14.4408 2.26327 14.6354 2.25675 14.7723C2.25349 14.8409 2.2518 14.8951 2.25093 14.9335C2.25049 14.9527 2.25026 14.968 2.25014 14.9791L2.25002 14.9927L2.25 14.9972L2.25 14.9988C2.25 14.9991 2.25 15 3 15H2.25V17C2.25 17.9665 3.0335 18.75 4 18.75H20C20.9665 18.75 21.75 17.9665 21.75 17V14.9992L21 15Z" fill="black"/>
</svg>
